packages/foundations/assets/icons/functional/images/accessibility/ear_disabled.svg

<svg xmlns="http://www.w3.org/2000/svg" width="32" height="32" fill="none"><path fill="#1A1C1F" fill-rule="evenodd" d="M28.56 2.056c-.263.135-4.076 3.966-4.191 4.211a.9.9 0 0 0-.002.8c.242.523.812.745 1.313.511q.214-.1 2.219-2.119c1.858-1.869 2.011-2.037 2.067-2.268.033-.138.05-.282.038-.32a4 4 0 0 1-.054-.217c-.039-.178-.313-.499-.515-.603-.196-.102-.673-.099-.875.005m-15.067.058-.533.077c-1.637.235-3.369.988-4.72 2.053-.627.494-.924.788-1.014 1.002a1.004 1.004 0 0 0 .698 1.356c.336.076.659-.033 1.011-.34 1.19-1.038 2.541-1.736 3.915-2.022a8.3 8.3 0 0 1 5.363.677c2.311 1.153 3.904 3.194 4.46 5.713.171.774.198 2.224.056 3.05-.255 1.488-.863 2.785-2.19 4.667l-1.036 1.466c-1.17 1.657-1.709 2.734-2.114 4.228-.303 1.121-.65 1.769-1.322 2.472-.638.668-1.412 1.122-2.36 1.385-.381.105-.578.126-1.227.125-.839 0-1.179-.062-1.908-.35-.577-.227-.936-.198-1.259.104-.183.171-.35.512-.352.718-.003.444.334.828.93 1.058 1.037.401 2.207.576 3.181.476 1.775-.182 3.224-.88 4.447-2.14.925-.953 1.452-1.927 1.812-3.346.336-1.327.807-2.185 2.475-4.516.954-1.332 1.487-2.185 1.927-3.08 1.099-2.235 1.388-4.486.873-6.807a10.31 10.31 0 0 0-8.818-8.004c-.418-.052-1.989-.067-2.295-.022m-.071 4.051c-1.111.201-2.325.81-3.109 1.559-.321.307-.419.552-.374.933.054.461.466.85.907.856.354.005.475-.05.973-.445a4.6 4.6 0 0 1 1.654-.865c.593-.169 1.572-.168 2.18.003 1.47.414 2.552 1.46 3.013 2.914.169.531.208 1.517.083 2.079-.147.658-.419 1.237-1.028 2.188-.424.66-.472.876-.287 1.282a.988.988 0 0 0 1.438.439c.378-.233 1.39-1.968 1.688-2.893 1.044-3.247-.843-6.863-4.104-7.864-.882-.271-2.138-.348-3.034-.186M9.573 21.062c-.145.068-1.366 1.256-3.848 3.746-3.543 3.554-3.636 3.652-3.688 3.907-.03.143-.046.287-.037.32.01.032.032.124.05.204.035.162.305.493.476.585.211.112.484.145.727.086.223-.053.508-.324 3.884-3.69 2.034-2.028 3.689-3.721 3.747-3.831.187-.361.094-.907-.2-1.174-.283-.255-.753-.32-1.111-.153"/></svg>

<svg width="32" height="32" viewBox="0 0 32 32" fill="none" xmlns="http://www.w3.org/2000/svg"><path d="M28.560 2.056 C 28.297 2.191,24.484 6.022,24.369 6.267 C 24.243 6.537,24.242 6.795,24.367 7.067 C 24.609 7.590,25.179 7.812,25.680 7.578 C 25.822 7.512,26.563 6.804,27.899 5.459 C 29.757 3.590,29.910 3.422,29.966 3.191 C 29.999 3.053,30.016 2.909,30.004 2.871 C 29.992 2.832,29.968 2.734,29.950 2.654 C 29.911 2.476,29.637 2.155,29.435 2.051 C 29.239 1.949,28.762 1.952,28.560 2.056 M13.493 2.114 C 13.420 2.125,13.180 2.160,12.960 2.191 C 11.323 2.426,9.591 3.179,8.240 4.244 C 7.613 4.738,7.316 5.032,7.226 5.246 C 6.991 5.810,7.329 6.469,7.924 6.602 C 8.260 6.678,8.583 6.569,8.935 6.262 C 10.125 5.224,11.476 4.526,12.850 4.240 C 14.668 3.861,16.582 4.103,18.213 4.917 C 20.524 6.070,22.117 8.111,22.673 10.630 C 22.844 11.404,22.871 12.854,22.729 13.680 C 22.474 15.168,21.866 16.465,20.539 18.347 C 20.259 18.743,19.793 19.403,19.503 19.813 C 18.333 21.470,17.794 22.547,17.389 24.041 C 17.086 25.162,16.739 25.810,16.067 26.513 C 15.429 27.181,14.655 27.635,13.707 27.898 C 13.326 28.003,13.129 28.024,12.480 28.023 C 11.641 28.023,11.301 27.961,10.572 27.673 C 9.995 27.446,9.636 27.475,9.313 27.777 C 9.130 27.948,8.963 28.289,8.961 28.495 C 8.958 28.939,9.295 29.323,9.891 29.553 C 10.928 29.954,12.098 30.129,13.072 30.029 C 14.847 29.847,16.296 29.149,17.519 27.889 C 18.444 26.936,18.971 25.962,19.331 24.543 C 19.667 23.216,20.138 22.358,21.806 20.027 C 22.760 18.695,23.293 17.842,23.733 16.947 C 24.832 14.712,25.121 12.461,24.606 10.140 C 23.659 5.870,20.138 2.674,15.788 2.136 C 15.370 2.084,13.799 2.069,13.493 2.114 M13.422 6.165 C 12.311 6.366,11.097 6.975,10.313 7.724 C 9.992 8.031,9.894 8.276,9.939 8.657 C 9.993 9.118,10.405 9.507,10.846 9.513 C 11.200 9.518,11.321 9.463,11.819 9.068 C 12.355 8.644,12.866 8.377,13.473 8.203 C 14.066 8.034,15.045 8.035,15.653 8.206 C 17.123 8.620,18.205 9.666,18.666 11.120 C 18.835 11.651,18.874 12.637,18.749 13.199 C 18.602 13.857,18.330 14.436,17.721 15.387 C 17.297 16.047,17.249 16.263,17.434 16.669 C 17.689 17.230,18.349 17.432,18.872 17.108 C 19.250 16.875,20.262 15.140,20.560 14.215 C 21.604 10.968,19.717 7.352,16.456 6.351 C 15.574 6.080,14.318 6.003,13.422 6.165 M9.573 21.062 C 9.428 21.130,8.207 22.318,5.725 24.808 C 2.182 28.362,2.089 28.460,2.037 28.715 C 2.007 28.858,1.991 29.002,2.000 29.035 C 2.010 29.067,2.032 29.159,2.050 29.239 C 2.085 29.401,2.355 29.732,2.526 29.824 C 2.737 29.936,3.010 29.969,3.253 29.910 C 3.476 29.857,3.761 29.586,7.137 26.220 C 9.171 24.192,10.826 22.499,10.884 22.389 C 11.071 22.028,10.978 21.482,10.684 21.215 C 10.401 20.960,9.931 20.895,9.573 21.062 " fill="#1A1C1F" stroke="none" fill-rule="evenodd"></path></svg>
